html/app/assets/img/ui/diamond.svg

<svg fill="none" height="96" viewBox="0 0 96 96" width="96" xmlns="http://www.w3.org/2000/svg"><circle cx="48" cy="48" fill="#f7bc9c" r="43.8425" stroke="#ffa78a" stroke-width="8" transform="matrix(.97270748 -.23203482 .23203482 .97270748 -9.827631 12.447713)"/><g style="fill-rule:evenodd;clip-rule:evenodd;fill:#e16464;stroke:#e16464;stroke-width:.5;stroke-miterlimit:2;stroke-linejoin:round"><path d="m23.1022 23.4388c.1976-.3286.5535-.5296.9375-.5296h30.6131v2.1818h-29.9941l-9.1316 15.1857 32.5685 40.8827 16.6367-20.7499 1.7075 1.363-17.4932 21.8182c-.2079.2592-.5227.4099-.8555.4094-.3327-.0005-.6471-.1522-.8541-.4121l-33.8931-42.5455c-.2836-.3559-.3161-.8501-.0816-1.24z"/><path d="m72.3672 25.0847h-5.9277v-2.1756h6.5454c.3832 0 .7383.2004.9355.5281l9.8181 16.3176c.2369.3937.2004.8933-.0911 1.2486l-9.8182 11.9663-1.6886-1.3778 9.3322-11.3739z"/><path d="m81.9552 41.3334h-28.1212v-2.9091h28.1212z"/><path d="m42.1974 41.3334h-28.1212v-2.9091h28.1212z"/><path d="m59.6514 39.0879 12.6855-16.1788 1.8599 1.2756-12.6855 16.1789z"/><path d="m59.7304 40.3636-12.6855-16.1789 1.86-1.2756 12.6855 16.1788z"/><path d="m35.4102 39.088 11.8398-16.1788 1.7359 1.2757-11.8398 16.1788z"/><path d="m35.4892 40.3637-12.6855-16.1788 1.8599-1.2757 12.6856 16.1788z"/><path d="m47.6439 83.0303-13.2044-43.0373 2.3106-.5991 13.2045 43.0373z"/><path d="m47.0449 82.4312 12.3792-43.0373 2.1663.5991-12.3792 43.0373z"/><path d="m59.9707 23.7879v-6.7879h2.9091v6.7879z"/><path d="m64.8182 21.8486h-5.8182v-1.9394h5.8182z"/><path d="m47.0449 43.2727v-6.7878h2.9091v6.7878z"/><path d="m51.8933 41.3334h-6.7878v-2.9091h6.7878z"/><path d="m18.9395 69.7879v-6.7879h2.909v6.7879z"/><path d="m23.7879 67.8486h-6.7879v-1.9394h6.7879z"/><path d="m68.3794 59.7576v-6.7879h1.9394v6.7879z"/><path d="m72.2576 57.8183h-5.8181v-2.9091h5.8181z"/></g></svg>

<svg width="96" height="96" viewBox="0 0 96 96" fill="none" xmlns="http://www.w3.org/2000/svg">
<circle cx="48" cy="48" r="43.8425" transform="rotate(-13.4169 48 48)" fill="#F7BC9C" stroke="#FFA78A" stroke-width="8"/>
<path fill-rule="evenodd" clip-rule="evenodd" d="M23.1022 23.4388C23.2998 23.1102 23.6557 22.9092 24.0397 22.9092H54.6528V25.091H24.6587L15.5271 40.2767L48.0956 81.1594L64.7323 60.4095L66.4398 61.7725L48.9466 83.5907C48.7387 83.8499 48.4239 84.0006 48.0911 84.0001C47.7584 83.9996 47.444 83.8479 47.237 83.588L13.3439 41.0425C13.0603 40.6866 13.0278 40.1924 13.2623 39.8025L23.1022 23.4388Z" fill="#E16464" stroke="#E16464" stroke-width="0.5" stroke-miterlimit="2" stroke-linejoin="round"/>
<path fill-rule="evenodd" clip-rule="evenodd" d="M72.3672 25.0847H66.4395V22.9091H72.9849C73.3681 22.9091 73.7232 23.1095 73.9204 23.4372L83.7385 39.7548C83.9754 40.1485 83.9389 40.6481 83.6474 41.0034L73.8292 52.9697L72.1406 51.5919L81.4728 40.218L72.3672 25.0847Z" fill="#E16464" stroke="#E16464" stroke-width="0.5" stroke-miterlimit="2" stroke-linejoin="round"/>
<path fill-rule="evenodd" clip-rule="evenodd" d="M81.9552 41.3334H53.834V38.4243H81.9552V41.3334Z" fill="#E16464" stroke="#E16464" stroke-width="0.5" stroke-miterlimit="2" stroke-linejoin="round"/>
<path fill-rule="evenodd" clip-rule="evenodd" d="M42.1974 41.3334H14.0762V38.4243H42.1974V41.3334Z" fill="#E16464" stroke="#E16464" stroke-width="0.5" stroke-miterlimit="2" stroke-linejoin="round"/>
<path fill-rule="evenodd" clip-rule="evenodd" d="M59.6514 39.0879L72.3369 22.9091L74.1968 24.1847L61.5113 40.3636L59.6514 39.0879Z" fill="#E16464" stroke="#E16464" stroke-width="0.5" stroke-miterlimit="2" stroke-linejoin="round"/>
<path fill-rule="evenodd" clip-rule="evenodd" d="M59.7304 40.3636L47.0449 24.1847L48.9049 22.9091L61.5904 39.0879L59.7304 40.3636Z" fill="#E16464" stroke="#E16464" stroke-width="0.5" stroke-miterlimit="2" stroke-linejoin="round"/>
<path fill-rule="evenodd" clip-rule="evenodd" d="M35.4102 39.088L47.25 22.9092L48.9859 24.1849L37.1461 40.3637L35.4102 39.088Z" fill="#E16464" stroke="#E16464" stroke-width="0.5" stroke-miterlimit="2" stroke-linejoin="round"/>
<path fill-rule="evenodd" clip-rule="evenodd" d="M35.4892 40.3637L22.8037 24.1849L24.6636 22.9092L37.3492 39.088L35.4892 40.3637Z" fill="#E16464" stroke="#E16464" stroke-width="0.5" stroke-miterlimit="2" stroke-linejoin="round"/>
<path fill-rule="evenodd" clip-rule="evenodd" d="M47.6439 83.0303L34.4395 39.993L36.7501 39.3939L49.9546 82.4312L47.6439 83.0303Z" fill="#E16464" stroke="#E16464" stroke-width="0.5" stroke-miterlimit="2" stroke-linejoin="round"/>
<path fill-rule="evenodd" clip-rule="evenodd" d="M47.0449 82.4312L59.4241 39.3939L61.5904 39.993L49.2112 83.0303L47.0449 82.4312Z" fill="#E16464" stroke="#E16464" stroke-width="0.5" stroke-miterlimit="2" stroke-linejoin="round"/>
<path fill-rule="evenodd" clip-rule="evenodd" d="M59.9707 23.7879V17H62.8798V23.7879H59.9707Z" fill="#E16464" stroke="#E16464" stroke-width="0.5" stroke-miterlimit="2" stroke-linejoin="round"/>
<path fill-rule="evenodd" clip-rule="evenodd" d="M64.8182 21.8486H59V19.9092H64.8182V21.8486Z" fill="#E16464" stroke="#E16464" stroke-width="0.5" stroke-miterlimit="2" stroke-linejoin="round"/>
<path fill-rule="evenodd" clip-rule="evenodd" d="M47.0449 43.2727V36.4849H49.954V43.2727H47.0449Z" fill="#E16464" stroke="#E16464" stroke-width="0.5" stroke-miterlimit="2" stroke-linejoin="round"/>
<path fill-rule="evenodd" clip-rule="evenodd" d="M51.8933 41.3334H45.1055V38.4243H51.8933V41.3334Z" fill="#E16464" stroke="#E16464" stroke-width="0.5" stroke-miterlimit="2" stroke-linejoin="round"/>
<path fill-rule="evenodd" clip-rule="evenodd" d="M18.9395 69.7879V63H21.8485V69.7879H18.9395Z" fill="#E16464" stroke="#E16464" stroke-width="0.5" stroke-miterlimit="2" stroke-linejoin="round"/>
<path fill-rule="evenodd" clip-rule="evenodd" d="M23.7879 67.8486H17V65.9092H23.7879V67.8486Z" fill="#E16464" stroke="#E16464" stroke-width="0.5" stroke-miterlimit="2" stroke-linejoin="round"/>
<path fill-rule="evenodd" clip-rule="evenodd" d="M68.3794 59.7576V52.9697H70.3188V59.7576H68.3794Z" fill="#E16464" stroke="#E16464" stroke-width="0.5" stroke-miterlimit="2" stroke-linejoin="round"/>
<path fill-rule="evenodd" clip-rule="evenodd" d="M72.2576 57.8183H66.4395V54.9092H72.2576V57.8183Z" fill="#E16464" stroke="#E16464" stroke-width="0.5" stroke-miterlimit="2" stroke-linejoin="round"/>
</svg>
